X:2
T:Venez, divin Messie - E9
C: (mlodie traditionnelle)
M:6/8
K:F
C|F2G A2A|B3 A2G|F2E D2G|(FE) D C2C|F2G A2A|B3 A2c|A2A (GF) G|F3-F2z||
G3 (GF) E|F3-F2z|G3 (GF) E|Fz F B2A|G2c B2A|G2c B2A|G2F (FE) F|G3 z2C|
F2G A2A|B3 A2G|F2E D2G|(FE) D C2C|F2G A2A|B3 A2c|A2A (GF) G|F3-F2||



